images/50866491.svg

<?xml version="1.0" encoding="UTF-8"?>
<svg xmlns="http://www.w3.org/2000/svg" xmlns:xlink="http://www.w3.org/1999/xlink" width="300pt" height="300pt" viewBox="0 0 300 300" version="1.1">
<defs>
<g>
<symbol overflow="visible" id="glyph0-0">
<path style="stroke:none;" d="M 0.453125 1.59375 L 0.453125 -6.34375 L 4.953125 -6.34375 L 4.953125 1.59375 Z M 0.953125 1.09375 L 4.453125 1.09375 L 4.453125 -5.84375 L 0.953125 -5.84375 Z M 0.953125 1.09375 "/>
</symbol>
<symbol overflow="visible" id="glyph0-1">
<path style="stroke:none;" d="M 3.546875 -5.953125 C 2.898438 -5.953125 2.382812 -5.710938 2 -5.234375 C 1.625 -4.753906 1.4375 -4.101562 1.4375 -3.28125 C 1.4375 -2.445312 1.625 -1.789062 2 -1.3125 C 2.382812 -0.832031 2.898438 -0.59375 3.546875 -0.59375 C 4.191406 -0.59375 4.703125 -0.832031 5.078125 -1.3125 C 5.453125 -1.789062 5.640625 -2.445312 5.640625 -3.28125 C 5.640625 -4.101562 5.453125 -4.753906 5.078125 -5.234375 C 4.703125 -5.710938 4.191406 -5.953125 3.546875 -5.953125 Z M 3.546875 -6.6875 C 4.460938 -6.6875 5.195312 -6.375 5.75 -5.75 C 6.300781 -5.132812 6.578125 -4.3125 6.578125 -3.28125 C 6.578125 -2.238281 6.300781 -1.410156 5.75 -0.796875 C 5.195312 -0.179688 4.460938 0.125 3.546875 0.125 C 2.617188 0.125 1.878906 -0.179688 1.328125 -0.796875 C 0.773438 -1.410156 0.5 -2.238281 0.5 -3.28125 C 0.5 -4.3125 0.773438 -5.132812 1.328125 -5.75 C 1.878906 -6.375 2.617188 -6.6875 3.546875 -6.6875 Z M 3.546875 -6.6875 "/>
</symbol>
<symbol overflow="visible" id="glyph0-2">
<path style="stroke:none;" d="M 0.890625 -6.5625 L 2.078125 -6.5625 L 4.984375 -1.078125 L 4.984375 -6.5625 L 5.84375 -6.5625 L 5.84375 0 L 4.65625 0 L 1.75 -5.484375 L 1.75 0 L 0.890625 0 Z M 0.890625 -6.5625 "/>
</symbol>
<symbol overflow="visible" id="glyph0-3">
<path style="stroke:none;" d="M 0.890625 -6.5625 L 1.765625 -6.5625 L 1.765625 -3.875 L 5 -3.875 L 5 -6.5625 L 5.890625 -6.5625 L 5.890625 0 L 5 0 L 5 -3.125 L 1.765625 -3.125 L 1.765625 0 L 0.890625 0 Z M 0.890625 -6.5625 "/>
</symbol>
</g>
</defs>
<g id="surface19021">
<rect x="0" y="0" width="300" height="300" style="fill:rgb(100%,100%,100%);fill-opacity:1;stroke:none;"/>
<path style="fill:none;stroke-width:1.2;stroke-linecap:butt;stroke-linejoin:miter;stroke:rgb(100%,0%,0%);stroke-opacity:1;stroke-miterlimit:10;" d="M 34.523438 119.902344 L 46.382812 122.988281 "/>
<path style="fill:none;stroke-width:1.2;stroke-linecap:butt;stroke-linejoin:miter;stroke:rgb(0%,0%,0%);stroke-opacity:1;stroke-miterlimit:10;" d="M 46.382812 122.988281 L 58.242188 126.078125 "/>
<path style="fill:none;stroke-width:1.2;stroke-linecap:butt;stroke-linejoin:miter;stroke:rgb(100%,0%,0%);stroke-opacity:1;stroke-miterlimit:10;" d="M 35.976562 114.324219 L 47.835938 117.410156 "/>
<path style="fill:none;stroke-width:1.2;stroke-linecap:butt;stroke-linejoin:miter;stroke:rgb(0%,0%,0%);stroke-opacity:1;stroke-miterlimit:10;" d="M 47.835938 117.410156 L 59.695312 120.496094 "/>
<path style=" stroke:none;fill-rule:nonzero;fill:rgb(100%,100%,100%);fill-opacity:1;" d="M 27.25 111.613281 L 35.25 111.613281 L 35.25 122.613281 L 27.25 122.613281 Z M 27.25 111.613281 "/>
<g style="fill:rgb(100%,0%,0%);fill-opacity:1;">
  <use xlink:href="#glyph0-1" x="27.25" y="120.276367"/>
</g>
<path style="fill:none;stroke-width:1.2;stroke-linecap:butt;stroke-linejoin:miter;stroke:rgb(0%,0%,0%);stroke-opacity:1;stroke-miterlimit:10;" d="M 58.96875 123.285156 L 67.570312 114.558594 "/>
<path style="fill:none;stroke-width:1.2;stroke-linecap:butt;stroke-linejoin:miter;stroke:rgb(0%,0%,100%);stroke-opacity:1;stroke-miterlimit:10;" d="M 67.570312 114.558594 L 76.175781 105.832031 "/>
<path style="fill:none;stroke-width:1.2;stroke-linecap:butt;stroke-linejoin:miter;stroke:rgb(0%,0%,0%);stroke-opacity:1;stroke-miterlimit:10;" d="M 58.96875 123.285156 L 65.480469 146.914062 "/>
<path style="fill:none;stroke-width:1.2;stroke-linecap:butt;stroke-linejoin:miter;stroke:rgb(0%,0%,100%);stroke-opacity:1;stroke-miterlimit:10;" d="M 76.175781 105.832031 L 72.917969 94.019531 "/>
<path style="fill:none;stroke-width:1.2;stroke-linecap:butt;stroke-linejoin:miter;stroke:rgb(0%,0%,0%);stroke-opacity:1;stroke-miterlimit:10;" d="M 72.917969 94.019531 L 69.660156 82.203125 "/>
<path style=" stroke:none;fill-rule:nonzero;fill:rgb(100%,100%,100%);fill-opacity:1;" d="M 69.175781 100.332031 L 83.175781 100.332031 L 83.175781 111.332031 L 69.175781 111.332031 Z M 69.175781 100.332031 "/>
<g style="fill:rgb(0%,0%,100%);fill-opacity:1;">
  <use xlink:href="#glyph0-2" x="69.175781" y="108.995117"/>
  <use xlink:href="#glyph0-3" x="76.15332" y="108.995117"/>
</g>
<path style="fill:none;stroke-width:1.2;stroke-linecap:butt;stroke-linejoin:miter;stroke:rgb(0%,0%,0%);stroke-opacity:1;stroke-miterlimit:10;" d="M 65.480469 146.914062 L 89.199219 153.085938 "/>
<path style="fill:none;stroke-width:1.2;stroke-linecap:butt;stroke-linejoin:miter;stroke:rgb(0%,0%,0%);stroke-opacity:1;stroke-miterlimit:10;" d="M 66.402344 153.113281 L 85.375 158.050781 "/>
<path style="fill:none;stroke-width:1.2;stroke-linecap:butt;stroke-linejoin:miter;stroke:rgb(0%,0%,0%);stroke-opacity:1;stroke-miterlimit:10;" d="M 48.277344 164.367188 L 65.480469 146.914062 "/>
<path style="fill:none;stroke-width:1.2;stroke-linecap:butt;stroke-linejoin:miter;stroke:rgb(0%,0%,0%);stroke-opacity:1;stroke-miterlimit:10;" d="M 89.199219 153.085938 L 95.714844 176.714844 "/>
<path style="fill:none;stroke-width:1.2;stroke-linecap:butt;stroke-linejoin:miter;stroke:rgb(0%,0%,0%);stroke-opacity:1;stroke-miterlimit:10;" d="M 95.714844 176.714844 L 107.574219 179.800781 "/>
<path style="fill:none;stroke-width:1.2;stroke-linecap:butt;stroke-linejoin:miter;stroke:rgb(0%,0%,100%);stroke-opacity:1;stroke-miterlimit:10;" d="M 107.574219 179.800781 L 119.433594 182.886719 "/>
<path style="fill:none;stroke-width:1.2;stroke-linecap:butt;stroke-linejoin:miter;stroke:rgb(0%,0%,0%);stroke-opacity:1;stroke-miterlimit:10;" d="M 95.714844 176.714844 L 78.507812 194.167969 "/>
<path style="fill:none;stroke-width:1.2;stroke-linecap:butt;stroke-linejoin:miter;stroke:rgb(0%,0%,0%);stroke-opacity:1;stroke-miterlimit:10;" d="M 89.886719 174.410156 L 76.121094 188.375 "/>
<path style="fill:none;stroke-width:1.2;stroke-linecap:butt;stroke-linejoin:miter;stroke:rgb(0%,0%,100%);stroke-opacity:1;stroke-miterlimit:10;" d="M 119.433594 182.886719 L 128.035156 174.160156 "/>
<path style="fill:none;stroke-width:1.2;stroke-linecap:butt;stroke-linejoin:miter;stroke:rgb(0%,0%,0%);stroke-opacity:1;stroke-miterlimit:10;" d="M 128.035156 174.160156 L 136.636719 165.433594 "/>
<path style=" stroke:none;fill-rule:nonzero;fill:rgb(100%,100%,100%);fill-opacity:1;" d="M 112.433594 177.386719 L 126.433594 177.386719 L 126.433594 188.386719 L 112.433594 188.386719 Z M 112.433594 177.386719 "/>
<g style="fill:rgb(0%,0%,100%);fill-opacity:1;">
  <use xlink:href="#glyph0-2" x="112.433594" y="186.049805"/>
  <use xlink:href="#glyph0-3" x="119.411133" y="186.049805"/>
</g>
<path style="fill:none;stroke-width:1.2;stroke-linecap:butt;stroke-linejoin:miter;stroke:rgb(0%,0%,0%);stroke-opacity:1;stroke-miterlimit:10;" d="M 136.636719 165.433594 L 133.382812 153.617188 "/>
<path style="fill:none;stroke-width:1.2;stroke-linecap:butt;stroke-linejoin:miter;stroke:rgb(0%,0%,100%);stroke-opacity:1;stroke-miterlimit:10;" d="M 133.382812 153.617188 L 130.125 141.804688 "/>
<path style="fill:none;stroke-width:1.2;stroke-linecap:butt;stroke-linejoin:miter;stroke:rgb(0%,0%,0%);stroke-opacity:1;stroke-miterlimit:10;" d="M 141.546875 161.539062 L 138.941406 152.085938 "/>
<path style="fill:none;stroke-width:1.2;stroke-linecap:butt;stroke-linejoin:miter;stroke:rgb(0%,0%,100%);stroke-opacity:1;stroke-miterlimit:10;" d="M 138.941406 152.085938 L 136.335938 142.636719 "/>
<path style="fill:none;stroke-width:1.2;stroke-linecap:butt;stroke-linejoin:miter;stroke:rgb(0%,0%,0%);stroke-opacity:1;stroke-miterlimit:10;" d="M 160.355469 171.605469 L 136.636719 165.433594 "/>
<path style="fill:none;stroke-width:1.2;stroke-linecap:butt;stroke-linejoin:miter;stroke:rgb(0%,0%,100%);stroke-opacity:1;stroke-miterlimit:10;" d="M 130.125 141.804688 L 138.726562 133.078125 "/>
<path style="fill:none;stroke-width:1.2;stroke-linecap:butt;stroke-linejoin:miter;stroke:rgb(0%,0%,0%);stroke-opacity:1;stroke-miterlimit:10;" d="M 138.726562 133.078125 L 147.332031 124.351562 "/>
<path style=" stroke:none;fill-rule:nonzero;fill:rgb(100%,100%,100%);fill-opacity:1;" d="M 127.125 136.304688 L 134.125 136.304688 L 134.125 147.304688 L 127.125 147.304688 Z M 127.125 136.304688 "/>
<g style="fill:rgb(0%,0%,100%);fill-opacity:1;">
  <use xlink:href="#glyph0-2" x="127.125" y="144.967773"/>
</g>
<path style="fill:none;stroke-width:1.2;stroke-linecap:butt;stroke-linejoin:miter;stroke:rgb(0%,0%,0%);stroke-opacity:1;stroke-miterlimit:10;" d="M 147.332031 124.351562 L 159.1875 127.4375 "/>
<path style="fill:none;stroke-width:1.2;stroke-linecap:butt;stroke-linejoin:miter;stroke:rgb(0%,0%,100%);stroke-opacity:1;stroke-miterlimit:10;" d="M 159.1875 127.4375 L 171.046875 130.523438 "/>
<path style="fill:none;stroke-width:1.2;stroke-linecap:butt;stroke-linejoin:miter;stroke:rgb(0%,0%,0%);stroke-opacity:1;stroke-miterlimit:10;" d="M 148.25 130.550781 L 157.738281 133.019531 "/>
<path style="fill:none;stroke-width:1.2;stroke-linecap:butt;stroke-linejoin:miter;stroke:rgb(0%,0%,100%);stroke-opacity:1;stroke-miterlimit:10;" d="M 157.738281 133.019531 L 167.222656 135.488281 "/>
<path style="fill:none;stroke-width:1.2;stroke-linecap:butt;stroke-linejoin:miter;stroke:rgb(0%,0%,0%);stroke-opacity:1;stroke-miterlimit:10;" d="M 147.332031 124.351562 L 140.816406 100.722656 "/>
<path style="fill:none;stroke-width:1.2;stroke-linecap:butt;stroke-linejoin:miter;stroke:rgb(0%,0%,100%);stroke-opacity:1;stroke-miterlimit:10;" d="M 171.046875 130.523438 L 174.304688 142.335938 "/>
<path style="fill:none;stroke-width:1.2;stroke-linecap:butt;stroke-linejoin:miter;stroke:rgb(0%,0%,0%);stroke-opacity:1;stroke-miterlimit:10;" d="M 174.304688 142.335938 L 177.5625 154.152344 "/>
<path style=" stroke:none;fill-rule:nonzero;fill:rgb(100%,100%,100%);fill-opacity:1;" d="M 168.046875 125.023438 L 175.046875 125.023438 L 175.046875 136.023438 L 168.046875 136.023438 Z M 168.046875 125.023438 "/>
<g style="fill:rgb(0%,0%,100%);fill-opacity:1;">
  <use xlink:href="#glyph0-2" x="168.046875" y="133.686523"/>
</g>
<path style="fill:none;stroke-width:1.2;stroke-linecap:butt;stroke-linejoin:miter;stroke:rgb(0%,0%,0%);stroke-opacity:1;stroke-miterlimit:10;" d="M 177.5625 154.152344 L 188.519531 159.636719 "/>
<path style="fill:none;stroke-width:1.2;stroke-linecap:butt;stroke-linejoin:miter;stroke:rgb(0%,0%,100%);stroke-opacity:1;stroke-miterlimit:10;" d="M 188.519531 159.636719 L 199.480469 165.121094 "/>
<path style="fill:none;stroke-width:1.2;stroke-linecap:butt;stroke-linejoin:miter;stroke:rgb(0%,0%,0%);stroke-opacity:1;stroke-miterlimit:10;" d="M 160.355469 171.605469 L 177.5625 154.152344 "/>
<path style="fill:none;stroke-width:1.2;stroke-linecap:butt;stroke-linejoin:miter;stroke:rgb(0%,0%,0%);stroke-opacity:1;stroke-miterlimit:10;" d="M 157.96875 165.8125 L 171.734375 151.847656 "/>
<path style="fill:none;stroke-width:1.2;stroke-linecap:butt;stroke-linejoin:miter;stroke:rgb(0%,0%,100%);stroke-opacity:1;stroke-miterlimit:10;" d="M 199.480469 165.121094 L 195.820312 189.355469 "/>
<path style="fill:none;stroke-width:1.2;stroke-linecap:butt;stroke-linejoin:miter;stroke:rgb(0%,0%,100%);stroke-opacity:1;stroke-miterlimit:10;" d="M 199.480469 165.121094 L 210.359375 159.480469 "/>
<path style="fill:none;stroke-width:1.2;stroke-linecap:butt;stroke-linejoin:miter;stroke:rgb(0%,0%,0%);stroke-opacity:1;stroke-miterlimit:10;" d="M 210.359375 159.480469 L 221.234375 153.835938 "/>
<path style=" stroke:none;fill-rule:nonzero;fill:rgb(100%,100%,100%);fill-opacity:1;" d="M 196.480469 159.621094 L 203.480469 159.621094 L 203.480469 170.621094 L 196.480469 170.621094 Z M 196.480469 159.621094 "/>
<g style="fill:rgb(0%,0%,100%);fill-opacity:1;">
  <use xlink:href="#glyph0-2" x="196.480469" y="168.28418"/>
</g>
<path style="fill:none;stroke-width:1.2;stroke-linecap:butt;stroke-linejoin:miter;stroke:rgb(0%,0%,100%);stroke-opacity:1;stroke-miterlimit:10;" d="M 195.820312 189.355469 L 183.730469 191.359375 "/>
<path style="fill:none;stroke-width:1.2;stroke-linecap:butt;stroke-linejoin:miter;stroke:rgb(0%,0%,0%);stroke-opacity:1;stroke-miterlimit:10;" d="M 183.730469 191.359375 L 171.640625 193.363281 "/>
<path style="fill:none;stroke-width:1.2;stroke-linecap:butt;stroke-linejoin:miter;stroke:rgb(0%,0%,100%);stroke-opacity:1;stroke-miterlimit:10;" d="M 192.457031 184.066406 L 182.785156 185.667969 "/>
<path style="fill:none;stroke-width:1.2;stroke-linecap:butt;stroke-linejoin:miter;stroke:rgb(0%,0%,0%);stroke-opacity:1;stroke-miterlimit:10;" d="M 182.785156 185.667969 L 173.113281 187.273438 "/>
<path style=" stroke:none;fill-rule:nonzero;fill:rgb(100%,100%,100%);fill-opacity:1;" d="M 192.820312 183.855469 L 199.820312 183.855469 L 199.820312 194.855469 L 192.820312 194.855469 Z M 192.820312 183.855469 "/>
<g style="fill:rgb(0%,0%,100%);fill-opacity:1;">
  <use xlink:href="#glyph0-2" x="192.820312" y="192.518555"/>
</g>
<path style="fill:none;stroke-width:1.2;stroke-linecap:butt;stroke-linejoin:miter;stroke:rgb(0%,0%,0%);stroke-opacity:1;stroke-miterlimit:10;" d="M 171.640625 193.363281 L 160.355469 171.605469 "/>
<path style="fill:none;stroke-width:1.2;stroke-linecap:butt;stroke-linejoin:miter;stroke:rgb(0%,0%,0%);stroke-opacity:1;stroke-miterlimit:10;" d="M 221.234375 153.835938 L 241.886719 167.039062 "/>
<path style="fill:none;stroke-width:1.2;stroke-linecap:butt;stroke-linejoin:miter;stroke:rgb(0%,0%,0%);stroke-opacity:1;stroke-miterlimit:10;" d="M 226.40625 150.300781 L 242.925781 160.859375 "/>
<path style="fill:none;stroke-width:1.2;stroke-linecap:butt;stroke-linejoin:miter;stroke:rgb(0%,0%,0%);stroke-opacity:1;stroke-miterlimit:10;" d="M 222.34375 129.355469 L 221.234375 153.835938 "/>
<path style="fill:none;stroke-width:1.2;stroke-linecap:butt;stroke-linejoin:miter;stroke:rgb(0%,0%,0%);stroke-opacity:1;stroke-miterlimit:10;" d="M 241.886719 167.039062 L 263.644531 155.753906 "/>
<path style="fill:none;stroke-width:1.2;stroke-linecap:butt;stroke-linejoin:miter;stroke:rgb(0%,0%,0%);stroke-opacity:1;stroke-miterlimit:10;" d="M 263.644531 155.753906 L 264.75 131.269531 "/>
<path style="fill:none;stroke-width:1.2;stroke-linecap:butt;stroke-linejoin:miter;stroke:rgb(0%,0%,0%);stroke-opacity:1;stroke-miterlimit:10;" d="M 257.992188 153.046875 L 258.878906 133.457031 "/>
<path style="fill:none;stroke-width:1.2;stroke-linecap:butt;stroke-linejoin:miter;stroke:rgb(0%,0%,0%);stroke-opacity:1;stroke-miterlimit:10;" d="M 264.75 131.269531 L 244.101562 118.070312 "/>
<path style="fill:none;stroke-width:1.2;stroke-linecap:butt;stroke-linejoin:miter;stroke:rgb(0%,0%,0%);stroke-opacity:1;stroke-miterlimit:10;" d="M 244.101562 118.070312 L 222.34375 129.355469 "/>
<path style="fill:none;stroke-width:1.2;stroke-linecap:butt;stroke-linejoin:miter;stroke:rgb(0%,0%,0%);stroke-opacity:1;stroke-miterlimit:10;" d="M 244.578125 124.316406 L 227.171875 133.34375 "/>
<path style="fill:none;stroke-width:1.2;stroke-linecap:butt;stroke-linejoin:miter;stroke:rgb(0%,0%,0%);stroke-opacity:1;stroke-miterlimit:10;" d="M 78.507812 194.167969 L 54.789062 187.996094 "/>
<path style="fill:none;stroke-width:1.2;stroke-linecap:butt;stroke-linejoin:miter;stroke:rgb(0%,0%,0%);stroke-opacity:1;stroke-miterlimit:10;" d="M 78.507812 194.167969 L 85.023438 217.796875 "/>
<path style="fill:none;stroke-width:1.2;stroke-linecap:butt;stroke-linejoin:miter;stroke:rgb(0%,0%,0%);stroke-opacity:1;stroke-miterlimit:10;" d="M 54.789062 187.996094 L 48.277344 164.367188 "/>
<path style="fill:none;stroke-width:1.2;stroke-linecap:butt;stroke-linejoin:miter;stroke:rgb(0%,0%,0%);stroke-opacity:1;stroke-miterlimit:10;" d="M 59.699219 184.101562 L 54.488281 165.199219 "/>
</g>
</svg>

<svg xmlns="http://www.w3.org/2000/svg" xmlns:xlink="http://www.w3.org/1999/xlink" width="300pt" height="300pt" viewBox="0 0 300 300"><defs><symbol overflow="visible"><path d="M.453 1.594v-7.938h4.5v7.938zm.5-.5h3.5v-6.938h-3.5zm0 0"/></symbol><symbol overflow="visible" id="a"><path d="M3.547-5.953c-.65 0-1.164.242-1.547.72-.375.48-.563 1.13-.563 1.952 0 .835.188 1.49.563 1.967.383.48.898.72 1.547.72.644 0 1.156-.24 1.53-.72.376-.476.564-1.132.564-1.968 0-.822-.187-1.474-.562-1.954-.375-.477-.887-.72-1.53-.72zm0-.734c.914 0 1.648.312 2.203.937.55.617.828 1.438.828 2.47 0 1.042-.277 1.87-.828 2.483-.555.617-1.29.922-2.203.922-.93 0-1.668-.305-2.22-.922C.774-1.41.5-2.237.5-3.28c0-1.033.273-1.853.828-2.47.55-.625 1.29-.938 2.22-.938zm0 0"/></symbol><symbol overflow="visible" id="b"><path d="M.89-6.563H2.08l2.906 5.485v-5.484h.86V0H4.656L1.75-5.484V0H.89zm0 0"/></symbol><symbol overflow="visible" id="c"><path d="M.89-6.563h.876v2.688H5v-2.688h.89V0H5v-3.125H1.766V0H.89zm0 0"/></symbol></defs><g><path fill="#fff" d="M0 0h300v300H0z"/><path d="M34.523 119.902l11.86 3.086" stroke-width="1.2" stroke="#f00" stroke-miterlimit="10" fill="none"/><path d="M46.383 122.988l11.86 3.09" stroke-width="1.2" stroke="#000" stroke-miterlimit="10" fill="none"/><path d="M35.977 114.324l11.86 3.086" stroke-width="1.2" stroke="#f00" stroke-miterlimit="10" fill="none"/><path d="M47.836 117.41l11.86 3.086" stroke-width="1.2" stroke="#000" stroke-miterlimit="10" fill="none"/><path d="M27.25 111.613h8v11h-8zm0 0" fill="#fff"/><use xlink:href="#a" x="27.25" y="120.276" fill="#f00"/><path d="M58.97 123.285l8.6-8.726" stroke-width="1.2" stroke="#000" stroke-miterlimit="10" fill="none"/><path d="M67.57 114.56l8.606-8.728" stroke-width="1.2" stroke="#00f" stroke-miterlimit="10" fill="none"/><path d="M58.97 123.285l6.51 23.63" stroke-width="1.2" stroke="#000" stroke-miterlimit="10" fill="none"/><path d="M76.176 105.832L72.918 94.02" stroke-width="1.2" stroke="#00f" stroke-miterlimit="10" fill="none"/><path d="M72.918 94.02L69.66 82.203" stroke-width="1.2" stroke="#000" stroke-miterlimit="10" fill="none"/><path d="M69.176 100.332h14v11h-14zm0 0" fill="#fff"/><g fill="#00f"><use xlink:href="#b" x="69.176" y="108.995"/><use xlink:href="#c" x="76.153" y="108.995"/></g><path d="M65.48 146.914l23.72 6.172M66.402 153.113l18.973 4.938M48.277 164.367l17.203-17.453M89.2 153.086l6.515 23.63M95.715 176.715l11.86 3.086" stroke-width="1.2" stroke="#000" stroke-miterlimit="10" fill="none"/><path d="M107.574 179.8l11.86 3.087" stroke-width="1.2" stroke="#00f" stroke-miterlimit="10" fill="none"/><path d="M95.715 176.715l-17.207 17.453M89.887 174.41L76.12 188.375" stroke-width="1.2" stroke="#000" stroke-miterlimit="10" fill="none"/><path d="M119.434 182.887l8.6-8.727" stroke-width="1.2" stroke="#00f" stroke-miterlimit="10" fill="none"/><path d="M128.035 174.16l8.602-8.726" stroke-width="1.2" stroke="#000" stroke-miterlimit="10" fill="none"/><path d="M112.434 177.387h14v11h-14zm0 0" fill="#fff"/><g fill="#00f"><use xlink:href="#b" x="112.434" y="186.05"/><use xlink:href="#c" x="119.411" y="186.05"/></g><path d="M136.637 165.434l-3.254-11.817" stroke-width="1.2" stroke="#000" stroke-miterlimit="10" fill="none"/><path d="M133.383 153.617l-3.258-11.812" stroke-width="1.2" stroke="#00f" stroke-miterlimit="10" fill="none"/><path d="M141.547 161.54l-2.606-9.454" stroke-width="1.2" stroke="#000" stroke-miterlimit="10" fill="none"/><path d="M138.94 152.086l-2.604-9.45" stroke-width="1.2" stroke="#00f" stroke-miterlimit="10" fill="none"/><path d="M160.355 171.605l-23.718-6.17" stroke-width="1.2" stroke="#000" stroke-miterlimit="10" fill="none"/><path d="M130.125 141.805l8.602-8.727" stroke-width="1.2" stroke="#00f" stroke-miterlimit="10" fill="none"/><path d="M138.727 133.078l8.605-8.726" stroke-width="1.2" stroke="#000" stroke-miterlimit="10" fill="none"/><path d="M127.125 136.305h7v11h-7zm0 0" fill="#fff"/><use xlink:href="#b" x="127.125" y="144.968" fill="#00f"/><path d="M147.332 124.352l11.856 3.085" stroke-width="1.2" stroke="#000" stroke-miterlimit="10" fill="none"/><path d="M159.188 127.438l11.86 3.085" stroke-width="1.2" stroke="#00f" stroke-miterlimit="10" fill="none"/><path d="M148.25 130.55l9.488 2.47" stroke-width="1.2" stroke="#000" stroke-miterlimit="10" fill="none"/><path d="M157.738 133.02l9.485 2.468" stroke-width="1.2" stroke="#00f" stroke-miterlimit="10" fill="none"/><path d="M147.332 124.352l-6.516-23.63" stroke-width="1.2" stroke="#000" stroke-miterlimit="10" fill="none"/><path d="M171.047 130.523l3.258 11.813" stroke-width="1.2" stroke="#00f" stroke-miterlimit="10" fill="none"/><path d="M174.305 142.336l3.257 11.816" stroke-width="1.2" stroke="#000" stroke-miterlimit="10" fill="none"/><path d="M168.047 125.023h7v11h-7zm0 0" fill="#fff"/><use xlink:href="#b" x="168.047" y="133.687" fill="#00f"/><path d="M177.563 154.152l10.957 5.485" stroke-width="1.2" stroke="#000" stroke-miterlimit="10" fill="none"/><path d="M188.52 159.637l10.96 5.484" stroke-width="1.2" stroke="#00f" stroke-miterlimit="10" fill="none"/><path d="M160.355 171.605l17.208-17.453M157.97 165.813l13.764-13.965" stroke-width="1.2" stroke="#000" stroke-miterlimit="10" fill="none"/><path d="M199.48 165.12l-3.66 24.235M199.48 165.12l10.88-5.64" stroke-width="1.2" stroke="#00f" stroke-miterlimit="10" fill="none"/><path d="M210.36 159.48l10.874-5.644" stroke-width="1.2" stroke="#000" stroke-miterlimit="10" fill="none"/><path d="M196.48 159.62h7v11h-7zm0 0" fill="#fff"/><use xlink:href="#b" x="196.48" y="168.284" fill="#00f"/><path d="M195.82 189.355l-12.09 2.004" stroke-width="1.2" stroke="#00f" stroke-miterlimit="10" fill="none"/><path d="M183.73 191.36l-12.09 2.003" stroke-width="1.2" stroke="#000" stroke-miterlimit="10" fill="none"/><path d="M192.457 184.066l-9.672 1.602" stroke-width="1.2" stroke="#00f" stroke-miterlimit="10" fill="none"/><path d="M182.785 185.668l-9.672 1.605" stroke-width="1.2" stroke="#000" stroke-miterlimit="10" fill="none"/><path d="M192.82 183.855h7v11h-7zm0 0" fill="#fff"/><use xlink:href="#b" x="192.82" y="192.519" fill="#00f"/><path d="M171.64 193.363l-11.285-21.758M221.234 153.836l20.653 13.203M226.406 150.3l16.52 10.56M222.344 129.355l-1.11 24.48M241.887 167.04l21.758-11.286M263.645 155.754l1.105-24.484M257.992 153.047l.887-19.59M264.75 131.27l-20.648-13.2M244.102 118.07l-21.758 11.285M244.578 124.316l-17.406 9.028M78.508 194.168l-23.72-6.172M78.508 194.168l6.515 23.63M54.79 187.996l-6.513-23.63M59.7 184.102L54.487 165.2" stroke-width="1.2" stroke="#000" stroke-miterlimit="10" fill="none"/></g></svg>
